#title "asdf"
#pcmfile "Oh_X"

@1={	 24, 12,  3,  0,  1, 27,  0,  8,  3,  0,  0,
	 24, 11,  0,  5,  1,  0,  1,  4,  7,  0,  0,
	 24, 12,  3,  0,  1, 28,  0,  8,  7,  0,  0,
	 24, 11,  0,  5,  1,  0,  1,  8,  3,  0,  0,
	  4,  6, 15}

@2={	 24, 12,  3,  0,  1, 27,  0,  8,  3,  0,  0,
	 24, 11,  0,  5,  1,  0,  1,  4,  7,  0,  0,
	 24, 12,  3,  0,  1, 28,  0,  8,  7,  0,  0,
	 24, 11,  0,  5,  1,  0,  1,  8,  3,  0,  0,
	  4,  6, 15}

@3={	 24, 12,  3,  0,  1, 27,  0,  8,  3,  0,  0,
	 24, 11,  0,  5,  1,  0,  1,  4,  7,  0,  0,
	 24, 12,  3,  0,  1, 28,  0,  8,  7,  0,  0,
	 24, 11,  0,  5,  1,  0,  1,  8,  3,  0,  0,
	  4,  6, 15}

@4={	 24, 12,  3,  0,  1, 27,  0,  8,  3,  0,  0,
	 24, 11,  0,  5,  1,  0,  1,  4,  7,  0,  0,
	 24, 12,  3,  0,  1, 28,  0,  8,  7,  0,  0,
	 24, 11,  0,  5,  1,  0,  1,  8,  3,  0,  0,
	  4,  6, 15}

A t120@1v7cdef

B @2v7efg>a

